X:1
T:Civil War Musician's Q.S.
S:American Veteran Fifer, #1
C:By A.F. Hopkins National Fife Major.
M:2/4
L:1/16
Q:1/8=180
K:G 
%%MIDI program 72
%%MIDI transpose 8
%%MIDI ratio 3 1
((3def) | gage dedB | efeB dBAG | efeB dedB | gbag f2 ((3def) |
gage dedB | efeB dBAG | efed fafd | g2b2g2 :|
|| f2| g8 | {f}gf g6 | {f}gfga gdBG | efe^c A4 |
{e}f8 | {e}fe f6 | {e}fafd ege^c | dbag fdef |
{f}g8 | {f}gf g6 | {f}gfga gdBG | efec A4 |
{f}a3g b2 a2 | (3abagf gdBG | efed fafd | g2b2g2 ||


